wedding/public/location-pin.svg

<svg width="16" height="16" viewBox="0 0 16 16" fill="none" xmlns="http://www.w3.org/2000/svg">
<path fill-rule="evenodd" clip-rule="evenodd" d="M7.36008 14.2302C7.52008 14.4202 7.75341 14.5302 8.00008 14.5302C8.24675 14.5302 8.48008 14.4202 8.64008 14.2302L12.0967 10.0802C12.8934 9.1235 13.3334 7.91016 13.3334 6.66683C13.3334 3.72683 10.9401 1.3335 8.00008 1.3335C5.06008 1.3335 2.66675 3.72683 2.66675 6.66683C2.66675 7.9135 3.10675 9.1235 3.90341 10.0802L7.36008 14.2302ZM3.66675 6.66683C3.66675 4.27683 5.61008 2.3335 8.00008 2.3335C10.3901 2.3335 12.3334 4.27683 12.3334 6.66683C12.3334 7.68016 11.9767 8.6635 11.3301 9.44016L8.00008 13.4368L4.67008 9.44016C4.02341 8.6635 3.66675 7.67683 3.66675 6.66683ZM5.66675 6.66683C5.66675 7.9535 6.71341 9.00016 8.00008 9.00016C9.28675 9.00016 10.3334 7.9535 10.3334 6.66683C10.3334 5.38016 9.28675 4.3335 8.00008 4.3335C6.71341 4.3335 5.66675 5.38016 5.66675 6.66683ZM6.66675 6.66683C6.66675 5.93016 7.26341 5.3335 8.00008 5.3335C8.73675 5.3335 9.33341 5.93016 9.33341 6.66683C9.33341 7.4035 8.73675 8.00016 8.00008 8.00016C7.26341 8.00016 6.66675 7.4035 6.66675 6.66683Z" fill="#84A882"/>
</svg>

<svg xmlns="http://www.w3.org/2000/svg" width="16" height="16" fill="none"><path fill="#84A882" fill-rule="evenodd" d="M7.36 14.23c.16.19.393.3.64.3s.48-.11.64-.3l3.457-4.15a5.35 5.35 0 0 0 1.236-3.413A5.34 5.34 0 0 0 8 1.334a5.34 5.34 0 0 0-5.333 5.333c0 1.247.44 2.457 1.236 3.413zM3.667 6.667A4.337 4.337 0 0 1 8 2.334a4.337 4.337 0 0 1 4.333 4.333A4.34 4.34 0 0 1 11.33 9.44L8 13.437 4.67 9.44a4.35 4.35 0 0 1-1.003-2.773m2 0A2.336 2.336 0 0 0 8 9a2.336 2.336 0 0 0 2.333-2.333A2.336 2.336 0 0 0 8 4.334a2.336 2.336 0 0 0-2.333 2.333m1 0a1.333 1.333 0 1 1 2.666 0 1.333 1.333 0 0 1-2.666 0" clip-rule="evenodd"/></svg>
